packages/katcn/src/icons/svg/uploadCloud.svg

<svg width="24" height="24" viewBox="0 0 24 24" fill="none" xmlns="http://www.w3.org/2000/svg">
<path d="M18.2217 6.375C18.0226 6.375 17.8235 6.375 17.6244 6.375C16.5294 4.32955 14.3394 3 11.9502 3C9.66063 3 7.57014 4.32955 6.37557 6.375C6.17647 6.375 5.97738 6.375 5.77828 6.375C3.19005 6.375 1 8.625 1 11.3864C1 14.1477 3.19005 16.2955 5.87783 16.2955H8.46606C9.06335 16.2955 9.46154 15.8864 9.46154 15.2727C9.46154 14.6591 9.06335 14.25 8.46606 14.25H5.87783C4.28507 14.25 2.99095 12.9205 2.99095 11.3864C2.99095 9.85227 4.28507 8.42045 5.87783 8.42045C6.17647 8.42045 6.47511 8.42045 6.67421 8.52273C7.17195 8.72727 7.66968 8.42045 7.86878 7.90909C8.56561 6.17045 10.1584 5.04545 12.0498 5.04545C13.9412 5.04545 15.5339 6.17045 16.2308 7.90909C16.4299 8.42045 16.9276 8.625 17.4253 8.52273C17.724 8.42045 17.9231 8.42045 18.2217 8.42045C19.8145 8.42045 21.1086 9.75 21.1086 11.3864C21.1086 13.0227 19.8145 14.25 18.2217 14.25H13.0452V11.1818L14.0407 12.2045C14.2398 12.4091 14.5385 12.5114 14.7376 12.5114C14.9367 12.5114 15.2353 12.4091 15.4344 12.2045C15.8326 11.7955 15.8326 11.1818 15.4344 10.7727L12.6471 7.90909C12.5475 7.80682 12.448 7.70455 12.3484 7.70455C12.1493 7.60227 11.8507 7.60227 11.552 7.70455C11.4525 7.80682 11.3529 7.80682 11.2534 7.90909L8.56561 10.7727C8.16742 11.1818 8.16742 11.8977 8.56561 12.2045C8.9638 12.5114 9.56109 12.6136 9.95928 12.2045L10.9548 11.1818V19.9773C10.9548 20.5909 11.3529 21 11.9502 21C12.5475 21 12.9457 20.5909 12.9457 19.9773V16.2955H18.1222C20.81 16.2955 23 14.0455 23 11.2841C23 8.52273 20.9095 6.375 18.2217 6.375Z" fill="black"/>
</svg>

<svg xmlns="http://www.w3.org/2000/svg" fill="none" viewBox="0 0 24 24"><path fill="#000" d="M18.222 6.375h-.598C16.53 4.33 14.34 3 11.95 3 9.66 3 7.57 4.33 6.376 6.375h-.598C3.19 6.375 1 8.625 1 11.386s2.19 4.91 4.878 4.91h2.588c.597 0 .996-.41.996-1.023 0-.614-.399-1.023-.996-1.023H5.878c-1.593 0-2.887-1.33-2.887-2.864S4.285 8.42 5.878 8.42c.298 0 .597 0 .796.103.498.204.996-.103 1.195-.614.697-1.739 2.29-2.864 4.18-2.864 1.892 0 3.485 1.125 4.182 2.864.199.511.697.716 1.194.614.299-.103.498-.103.797-.103 1.592 0 2.887 1.33 2.887 2.966s-1.295 2.864-2.887 2.864h-5.177v-3.068l.996 1.022c.199.205.498.307.697.307s.497-.102.696-.306a1.007 1.007 0 0 0 0-1.432l-2.787-2.864c-.1-.102-.199-.204-.299-.204-.199-.103-.497-.103-.796 0-.1.102-.2.102-.299.204l-2.687 2.864c-.399.409-.399 1.125 0 1.431.398.307.995.41 1.393 0l.996-1.022v8.795c0 .614.398 1.023.995 1.023.598 0 .996-.41.996-1.023v-3.681h5.176c2.688 0 4.878-2.25 4.878-5.012s-2.09-4.909-4.778-4.909"/></svg>
